X:919
T:Gubbstöt
T:efter Pelle Fors
R:Gubbstöt
O:Vikbolandet, Östergötland
S:efter Pelle Fors
B:Låtar efter Pelle Fors
Z:Björn Ek 2009-01-02
M:3/4
L:1/8
K:D
%
|:A>d d>f f>a|a>g B2 B2|A>c c>e e>c|A>d d>f d2|
A>d d>f f>a  |a>g B2 B2|A>c c>e c>A|d2 d4    :|
%
|:d>g g>b b2|d>f f>a a2 |A>c c>e e>c|A>d d>f d2|
d>g g>b b>g |d>f f>a a>f|A>c c>e c>A|d2 d4    :|
%
(:musicend:)

(:music:)
